X: 2
T: Piece No.2
M:4/4
L:1/4
Q:200
K:C
[^F/e/] [F/e/] z/ [F/e/] z/ [F/c/] [Fe]| [GBg] z G z| c3/ G/ z E| E/ A B _B/ A| (3Geg a f/ g/| z/ e c/ d/ B3/|] e^d|e^deB=dc_dd^ddd|dA2 z CEA|B2 z E^GB|c2 z Ee^d|
